packages/bpk-svgs/src/icons/lg/fingerprint.svg

<svg viewBox="0 0 24 24" fill="none" xmlns="http://www.w3.org/2000/svg">
<path d="M10.9837 2.96729C11.0831 3.51056 10.7232 4.03154 10.18 4.13094C6.4541 4.81265 3.63024 8.07759 3.63024 12C3.63024 12.8711 3.45836 13.7045 3.14572 14.4663C2.93604 14.9773 2.35188 15.2215 1.84094 15.0118C1.33 14.8022 1.08578 14.218 1.29545 13.7071C1.51093 13.182 1.63024 12.6062 1.63024 12C1.63024 7.09459 5.16127 3.016 9.82002 2.1636C10.3633 2.0642 10.8843 2.42402 10.9837 2.96729ZM13.0351 3.05258C13.1802 2.51969 13.7298 2.20529 14.2627 2.35036C18.5077 3.50595 21.6302 7.38703 21.6302 12V12.5C21.6302 14.4731 21.3968 16.3931 20.9555 18.2332C20.8268 18.7702 20.287 19.1012 19.7499 18.9724C19.2129 18.8436 18.8819 18.3039 19.0107 17.7668C19.4156 16.0783 19.6302 14.3149 19.6302 12.5V12C19.6302 8.31217 17.134 5.2048 13.7373 4.28013C13.2044 4.13506 12.8901 3.58547 13.0351 3.05258ZM11.6302 7.49999C9.72383 7.49999 8.09194 8.68586 7.43667 10.3638C7.23577 10.8782 6.65586 11.1324 6.14141 10.9315C5.62696 10.7306 5.37279 10.1507 5.5737 9.63622C6.51856 7.21677 8.87269 5.49999 11.6302 5.49999C14.3878 5.49999 16.7419 7.21677 17.6868 9.63622C17.8877 10.1507 17.6335 10.7306 17.1191 10.9315C16.6046 11.1324 16.0247 10.8782 15.8238 10.3638C15.1685 8.68586 13.5367 7.49999 11.6302 7.49999ZM11.6302 11C11.078 11 10.6302 11.4477 10.6302 12V12.5C10.6302 14.1162 10.3458 15.6682 9.82335 17.1073C9.38693 18.3094 8.78488 19.4315 8.04514 20.446C7.87199 20.6834 7.69129 20.915 7.50339 21.1404C7.1497 21.5646 6.51912 21.6217 6.09494 21.268C5.67076 20.9144 5.61361 20.2838 5.96729 19.8596C6.12749 19.6675 6.28153 19.47 6.42911 19.2676C7.05963 18.4029 7.57213 17.4474 7.94341 16.4248C8.38757 15.2013 8.63024 13.8801 8.63024 12.5V12C8.63024 10.3431 9.97339 8.99999 11.6302 8.99999C13.2871 8.99999 14.6302 10.3431 14.6302 12V12.5C14.6302 14.289 14.3615 16.017 13.8614 17.645C13.4415 19.012 12.8588 20.3075 12.1362 21.5088C11.9356 21.8422 11.7242 22.1684 11.5026 22.4869C11.187 22.9401 10.5638 23.0518 10.1105 22.7363C9.65724 22.4208 9.54557 21.7975 9.8611 21.3442C10.0575 21.0621 10.2447 20.7731 10.4224 20.4778C11.0624 19.4139 11.5781 18.2672 11.9496 17.0578C12.3918 15.6179 12.6302 14.0877 12.6302 12.5V12C12.6302 11.4477 12.1825 11 11.6302 11ZM6.12881 13.0221C6.66744 13.1442 7.00514 13.6798 6.88309 14.2184C6.51194 15.8563 5.7394 17.3406 4.67585 18.5625C4.31326 18.9791 3.68161 19.0229 3.26502 18.6603C2.84843 18.2977 2.80465 17.666 3.16724 17.2494C4.01935 16.2704 4.63631 15.0837 4.93254 13.7764C5.05459 13.2378 5.59018 12.9001 6.12881 13.0221ZM17.1488 13.0001C17.6996 13.0409 18.1131 13.5205 18.0723 14.0712C17.9069 16.3055 17.3918 18.4434 16.5812 20.4298C16.3614 20.9685 16.1198 21.496 15.8577 22.0111C15.6072 22.5034 15.0052 22.6993 14.513 22.4489C14.0207 22.1984 13.8247 21.5964 14.0752 21.1041C14.3123 20.6382 14.5307 20.1612 14.7295 19.6741C15.4621 17.8787 15.9281 15.9457 16.0778 13.9236C16.1185 13.3728 16.5981 12.9594 17.1488 13.0001Z" fill="#111236"/>
</svg>

<svg xmlns="http://www.w3.org/2000/svg" viewBox="0 0 24 24"><path d="M10.984 2.967a1 1 0 0 1-.804 1.164A8.003 8.003 0 0 0 3.63 12c0 .871-.172 1.704-.484 2.466a1 1 0 1 1-1.85-.759c.215-.525.334-1.1.334-1.707 0-4.905 3.531-8.984 8.19-9.836a1 1 0 0 1 1.164.803zm2.051.086a1 1 0 0 1 1.228-.703C18.508 3.506 21.63 7.387 21.63 12v.5a24.56 24.56 0 0 1-.674 5.733 1 1 0 1 1-1.945-.466c.405-1.689.62-3.452.62-5.267V12a8.004 8.004 0 0 0-5.894-7.72 1 1 0 0 1-.702-1.227zM11.63 7.5a4.502 4.502 0 0 0-4.193 2.864 1 1 0 0 1-1.863-.728 6.502 6.502 0 0 1 12.113 0 1 1 0 0 1-1.863.728A4.502 4.502 0 0 0 11.63 7.5zm0 3.5a1 1 0 0 0-1 1v.5c0 1.616-.284 3.168-.807 4.607a13.468 13.468 0 0 1-2.32 4.033 1 1 0 0 1-1.536-1.28 11.542 11.542 0 0 0 1.976-3.435c.445-1.224.687-2.545.687-3.925V12a3 3 0 1 1 6 0v.5a17.416 17.416 0 0 1-3.128 9.987 1 1 0 0 1-1.64-1.143 15.414 15.414 0 0 0 2.77-8.844V12a1 1 0 0 0-1.002-1zM6.13 13.022a1 1 0 0 1 .754 1.196 9.973 9.973 0 0 1-2.207 4.345 1 1 0 1 1-1.509-1.314 7.973 7.973 0 0 0 1.766-3.473 1 1 0 0 1 1.196-.754zM17.149 13a1 1 0 0 1 .923 1.071 20.89 20.89 0 0 1-2.214 7.94 1 1 0 1 1-1.783-.907 18.894 18.894 0 0 0 2.003-7.18 1 1 0 0 1 1.07-.924z"/></svg>
